public/previous.svg

<svg width="9" height="18" viewBox="0 0 9 18" fill="none" xmlns="http://www.w3.org/2000/svg">
<path d="M8.00027 17.6695C7.81027 17.6695 7.62027 17.5995 7.47027 17.4495L0.950273 10.9295C-0.109727 9.86953 -0.109727 8.12953 0.950273 7.06953L7.47027 0.549531C7.76027 0.259531 8.24027 0.259531 8.53027 0.549531C8.82027 0.839531 8.82027 1.31953 8.53027 1.60953L2.01027 8.12953C1.53027 8.60953 1.53027 9.38953 2.01027 9.86953L8.53027 16.3895C8.82027 16.6795 8.82027 17.1595 8.53027 17.4495C8.38027 17.5895 8.19027 17.6695 8.00027 17.6695Z" fill="white"/>
</svg>

<svg fill="none" height="18" viewBox="0 0 9 18" width="9" xmlns="http://www.w3.org/2000/svg"><path d="m8.00027 17.6695c-.19 0-.38-.07-.53-.22l-6.519997-6.52c-1.06-1.05997-1.06-2.79997 0-3.85997l6.519997-6.519999c.29-.29.77-.29 1.06 0s.29.769999 0 1.059999l-6.52 6.52c-.48.48-.48 1.26 0 1.74l6.52 6.51997c.29.29.29.77 0 1.06-.15.14-.34.22-.53.22z" fill="#fff"/></svg>
